64x64/apps/com.github.tkashkin.gamehub.svg

<svg xmlns="http://www.w3.org/2000/svg" width="64" height="64" version="1.1">
 <circle style="opacity:0.2" cx="32" cy="33" r="28"/>
 <circle style="fill:#935ad1" cx="32" cy="32" r="28"/>
 <path style="opacity:0.2" d="m 22.158203,18.999996 c -2.455422,0 -5.028339,1.358558 -6.466797,5.003906 C 12.653742,31.696475 11,37.645312 11,41.253902 c 0,2.775424 0.981517,4.533297 3.0625,5.5625 0.243898,0.120946 0.512919,0.184045 0.785156,0.183594 0.433363,8.72e-4 0.85189,-0.159349 1.175782,-0.447266 l 5.441406,-4.802734 c 0.974818,-0.864533 1.827084,-1.757812 4.207031,-1.757812 h 12.658203 c 2.379948,0 3.228301,0.892789 4.205078,1.757812 l 5.441406,4.802734 c 0.540124,0.478662 1.315988,0.583629 1.962891,0.263672 C 52.019947,45.787689 53,44.029334 53,41.251949 53,37.64385 51.346744,31.695005 48.310547,24.003902 c -1.438458,-3.645348 -4.013818,-5.003906 -6.46875,-5.003906 -1.148315,0 -2.270324,0.298441 -3.238281,0.798828 -4.154615,2.14026 -8.959318,2.185838 -13.201172,0 -0.971386,-0.500383 -2.096317,-0.798828 -3.244141,-0.798828 z m 9.841797,4 c 1.656854,0 3,1.343146 3,3 0,1.656854 -1.343146,3 -3,3 -1.656854,0 -3,-1.343146 -3,-3 0,-1.656854 1.343146,-3 3,-3 z m -9.800781,3 c 2.319738,-3.91e-4 4.201536,1.879513 4.201172,4.199219 3.64e-4,2.319707 -1.881434,4.201562 -4.201172,4.201172 -2.319738,3.9e-4 -4.199583,-1.881465 -4.199219,-4.201172 -3.64e-4,-2.319706 1.879481,-4.19961 4.199219,-4.199219 z m 19.300781,0 a 1.5,1.5 0 0 1 1.5,1.5 1.5,1.5 0 0 1 -1.5,1.5 1.5,1.5 0 0 1 -1.5,-1.5 1.5,1.5 0 0 1 1.5,-1.5 z m -19.300781,1.400391 c -1.54551,6.47e-4 -2.798221,1.253357 -2.798828,2.798828 -4.71e-4,1.546233 1.252555,2.800134 2.798828,2.800781 1.547035,4.32e-4 2.801252,-1.253785 2.800781,-2.800781 -6.08e-4,-1.546233 -1.254508,-2.799259 -2.800781,-2.798828 z M 38.5,28.999996 a 1.5,1.5 0 0 1 1.5,1.5 1.5,1.5 0 0 1 -1.5,1.5 1.5,1.5 0 0 1 -1.5,-1.5 1.5,1.5 0 0 1 1.5,-1.5 z m 6,0 a 1.5,1.5 0 0 1 1.5,1.5 1.5,1.5 0 0 1 -1.5,1.5 1.5,1.5 0 0 1 -1.5,-1.5 1.5,1.5 0 0 1 1.5,-1.5 z m -3,3 a 1.5,1.5 0 0 1 1.5,1.5 1.5,1.5 0 0 1 -1.5,1.5 1.5,1.5 0 0 1 -1.5,-1.5 1.5,1.5 0 0 1 1.5,-1.5 z"/>
 <path style="fill:#f4f4f7" d="M 22.158203 18 C 19.702781 18 17.129864 19.358558 15.691406 23.003906 C 12.653742 30.696479 11 36.645316 11 40.253906 C 11 43.02933 11.981517 44.787203 14.0625 45.816406 C 14.306398 45.937352 14.575419 46.000451 14.847656 46 C 15.281019 46.000872 15.699546 45.840651 16.023438 45.552734 L 21.464844 40.75 C 22.439662 39.885467 23.291928 38.992188 25.671875 38.992188 L 38.330078 38.992188 C 40.710026 38.992188 41.558379 39.884977 42.535156 40.75 L 47.976562 45.552734 C 48.516686 46.031396 49.29255 46.136363 49.939453 45.816406 C 52.019947 44.787693 53 43.029338 53 40.251953 C 53 36.643854 51.346744 30.695009 48.310547 23.003906 C 46.872089 19.358558 44.296729 18 41.841797 18 C 40.693482 18 39.571473 18.298441 38.603516 18.798828 C 34.448901 20.939088 29.644198 20.984666 25.402344 18.798828 C 24.430958 18.298445 23.306027 18 22.158203 18 z M 32 22 C 33.656854 22 35 23.343146 35 25 C 35 26.656854 33.656854 28 32 28 C 30.343146 28 29 26.656854 29 25 C 29 23.343146 30.343146 22 32 22 z M 22.199219 25 C 24.518957 24.999609 26.400755 26.879513 26.400391 29.199219 C 26.400755 31.518926 24.518957 33.400781 22.199219 33.400391 C 19.879481 33.400781 17.999636 31.518926 18 29.199219 C 17.999636 26.879513 19.879481 24.999609 22.199219 25 z M 41.5 25 A 1.5 1.5 0 0 1 43 26.5 A 1.5 1.5 0 0 1 41.5 28 A 1.5 1.5 0 0 1 40 26.5 A 1.5 1.5 0 0 1 41.5 25 z M 22.199219 26.400391 C 20.653709 26.401038 19.400998 27.653748 19.400391 29.199219 C 19.39992 30.745452 20.652946 31.999353 22.199219 32 C 23.746254 32.000432 25.000471 30.746215 25 29.199219 C 24.999392 27.652986 23.745492 26.39996 22.199219 26.400391 z M 38.5 28 A 1.5 1.5 0 0 1 40 29.5 A 1.5 1.5 0 0 1 38.5 31 A 1.5 1.5 0 0 1 37 29.5 A 1.5 1.5 0 0 1 38.5 28 z M 44.5 28 A 1.5 1.5 0 0 1 46 29.5 A 1.5 1.5 0 0 1 44.5 31 A 1.5 1.5 0 0 1 43 29.5 A 1.5 1.5 0 0 1 44.5 28 z M 41.5 31 A 1.5 1.5 0 0 1 43 32.5 A 1.5 1.5 0 0 1 41.5 34 A 1.5 1.5 0 0 1 40 32.5 A 1.5 1.5 0 0 1 41.5 31 z"/>
 <path style="fill:#f4f4f7;opacity:0.2" d="M 32 4 A 28 28 0 0 0 4 32 A 28 28 0 0 0 4.0214844 32.585938 A 28 28 0 0 1 32 5 A 28 28 0 0 1 59.978516 32.414062 A 28 28 0 0 0 60 32 A 28 28 0 0 0 32 4 z"/>
</svg>

<svg xmlns="http://www.w3.org/2000/svg" width="64" height="64"><circle style="opacity:.2" cx="32" cy="33" r="28"/><circle style="fill:#935ad1" cx="32" cy="32" r="28"/><path style="opacity:.2" d="M22.158 19c-2.455 0-5.028 1.359-6.467 5.004C12.654 31.696 11 37.645 11 41.254c0 2.775.982 4.533 3.063 5.562a1.766 1.766 0 0 0 1.96-.264l5.442-4.802c.975-.865 1.827-1.758 4.207-1.758H38.33c2.38 0 3.228.893 4.205 1.758l5.442 4.803c.54.478 1.316.583 1.962.263C52.02 45.788 53 44.03 53 41.252c0-3.608-1.653-9.557-4.69-17.248C46.873 20.359 44.298 19 41.843 19c-1.149 0-2.27.298-3.238.799-4.155 2.14-8.96 2.186-13.202 0A7.144 7.144 0 0 0 22.158 19zM32 23a3 3 0 1 1 0 6 3 3 0 0 1 0-6zm-9.8 3a4.2 4.2 0 1 1 0 8.4 4.2 4.2 0 0 1-4.2-4.2c0-2.32 1.88-4.2 4.2-4.2zm19.3 0a1.5 1.5 0 0 1 1.5 1.5 1.5 1.5 0 0 1-1.5 1.5 1.5 1.5 0 0 1-1.5-1.5 1.5 1.5 0 0 1 1.5-1.5zm-19.3 1.4A2.8 2.8 0 1 0 22.2 33a2.8 2.8 0 0 0-.002-5.6zM38.5 29a1.5 1.5 0 0 1 1.5 1.5 1.5 1.5 0 0 1-1.5 1.5 1.5 1.5 0 0 1-1.5-1.5 1.5 1.5 0 0 1 1.5-1.5zm6 0a1.5 1.5 0 0 1 1.5 1.5 1.5 1.5 0 0 1-1.5 1.5 1.5 1.5 0 0 1-1.5-1.5 1.5 1.5 0 0 1 1.5-1.5zm-3 3a1.5 1.5 0 0 1 1.5 1.5 1.5 1.5 0 0 1-1.5 1.5 1.5 1.5 0 0 1-1.5-1.5 1.5 1.5 0 0 1 1.5-1.5z"/><path style="fill:#f4f4f7" d="M22.158 18c-2.455 0-5.028 1.359-6.467 5.004C12.654 30.696 11 36.645 11 40.254c0 2.775.982 4.533 3.063 5.562a1.766 1.766 0 0 0 1.96-.264l5.442-4.802c.975-.865 1.827-1.758 4.207-1.758H38.33c2.38 0 3.228.893 4.205 1.758l5.442 4.803c.54.478 1.316.583 1.962.263C52.02 44.788 53 43.03 53 40.252c0-3.608-1.653-9.557-4.69-17.248C46.873 19.359 44.298 18 41.843 18c-1.149 0-2.27.298-3.238.799-4.155 2.14-8.96 2.186-13.202 0A7.144 7.144 0 0 0 22.158 18zM32 22a3 3 0 1 1 0 6 3 3 0 0 1 0-6zm-9.8 3a4.2 4.2 0 1 1 0 8.4 4.2 4.2 0 0 1-4.2-4.2c0-2.32 1.88-4.2 4.2-4.2zm19.3 0a1.5 1.5 0 0 1 1.5 1.5 1.5 1.5 0 0 1-1.5 1.5 1.5 1.5 0 0 1-1.5-1.5 1.5 1.5 0 0 1 1.5-1.5zm-19.3 1.4A2.8 2.8 0 1 0 22.2 32a2.8 2.8 0 0 0-.002-5.6zM38.5 28a1.5 1.5 0 0 1 1.5 1.5 1.5 1.5 0 0 1-1.5 1.5 1.5 1.5 0 0 1-1.5-1.5 1.5 1.5 0 0 1 1.5-1.5zm6 0a1.5 1.5 0 0 1 1.5 1.5 1.5 1.5 0 0 1-1.5 1.5 1.5 1.5 0 0 1-1.5-1.5 1.5 1.5 0 0 1 1.5-1.5zm-3 3a1.5 1.5 0 0 1 1.5 1.5 1.5 1.5 0 0 1-1.5 1.5 1.5 1.5 0 0 1-1.5-1.5 1.5 1.5 0 0 1 1.5-1.5z"/><path style="fill:#f4f4f7;opacity:.2" d="M32 4A28 28 0 0 0 4 32a28 28 0 0 0 .021.586A28 28 0 0 1 32 5a28 28 0 0 1 27.979 27.414A28 28 0 0 0 60 32 28 28 0 0 0 32 4z"/></svg>
